X:2
T:Pipe Major William Livingstone
C:Michael Grey
B:William Livingstone Volume 1
H:
O:Kevin Fraser
Z:Kevin Fraser
Q:1/4=90
K:HP
M:2/4
L:1/16
R:March
U: R = ///
U: r = //
U: V = !accent!
V:M gstem=up stem=down name="Melody" sname="Melody" 
V:H gstem=up stem=down name="Harmony" sname="Harmony"
V:C gstem=up stem=down name="C-Harmony" sname="C-Harmony"
V:S gstem=up stem=down clef=none dyn=up name="Snare" sname="Snare"
V:B gstem=up stem=down clef=none dyn=up name="Bass" sname="Bass"
V:T gstem=up stem=down clef=none dyn=up name="Tenor" sname="Tenor"
V:BB gstem=up stem=down name="Brass Bass" sname="Bass" transpose=-1  octave=-2 clef=bass
V:BC gstem=up stem=down name="Brass Chord" sname="ABCD-D" transpose=-1
V:BD gstem=up stem=down name="Brass Chord 2" sname="ABCD-B" transpose=-1
V:P gstem=up stem=down name="Piano" sname="Piano" transpose=0 octave=-1
I:MIDI=program 110
%%MIDI gracedivider 4
% %score {M BC BD BB}
% %MIDI program 109 #bagpipes
%%MIDI vol 100
[V:M] [|:f2|{g}B>{d}c{g}B<{d}A {GdG}B2{g}d<f | {g}e>f{gde}d>B {g}c<{d}A{gef}e>c | {g}B>{d}c{g}B<{d}A {gfg}f>af<d | {gef}e4 {A}e2{gfg}f2 | 
w:
[V:M]       {g}B>{d}c{g}B<{d}A {GdG}B2{g}d<f | {g}e>f{gde}d>B {g}c<{d}A{gef}e>c | {g}f>e{g}c<e a>f{gef}e>c} | {g}B4 {GdGe}B2 :]
w:
[V:M] [|:{g}c<e|{gfg}f>e{g}f<g {ag}a>f{g}d>f} | {g}e>f{gde}d>B {g}c<{d}A{gcd}c<e | {g}f>e{g}c<e {gfg}f>af<d | {gef}e4 {A}e2{gfg}{g}c<e| 
w:
[V:M]           {gfg}f>e{g}f<g {ag}a>f{g}d>f} | {g}e>f{gde}d>B {g}c<{d}A{gef}e>c | {g}f>e{g}c<e a>f{gef}e>c} | {g}B4 {GdGe}B2 :]
w:
[V:M] [|:f2|{g}B>{d}c{g}B<{d}A {GdG}B4 | {g}A>B{gcd}c>B {g}c<{d}A{gef}e>c | {g}B>{d}c{g}B<{d}A {gfg}f>af<d | {gef}e4 ["2nd ending 3rd part"{A}e2{gfg}f2 | 
w:
[V:M] [2      {g}B>{d}c{g}B<{d}A {GdG}B4 | {g}A>B{gcd}c>B {g}c<{d}A{gef}e>c | {g}f>e{g}c<e a>f{gef}e>c} | {g}B4 {GdGe}B2 :]
w:
[V:M] [|:{g}c<e|{g}f>ag<a {GdG}f>af<d | {g}e>f{gde}d>B {g}c<{d}A{g}c<e | {g}f>ag<a {g}A>d{g}f<a | {gef}e4 [1{A}e2{g}c<e| 
w:
[V:M]  [1       {g}f>ag<a {GdG}f>af<d | {g}e>f{gde}d>B {g}c<{d}A{g}c<e | {g}f>e{g}c<e a>f{gef}e>c} | {g}B4 {GdGe}B2 :]
w:

